X:76
T: Die dienende Schwester
N: Q0075e
O: Mitteleuropa, Deutschland (BRD) , Hessen, Nassau
R: Ballade, Adelige als Dienstmagd, Tod; Kinder - Spiel, Tanz
M: 2/4
L: 1/32
K: F
c4 | A4c4A4c4 | d4d4d2c2
B2A2 | G4B4G4B4 | c4c4c2B2
A3G | F12G4 | A12f4 | e4d4d4d4 | c12

